fs/alert_off_16_filled.svg

<svg viewBox="0 0 16 16" fill="none" xmlns="http://www.w3.org/2000/svg" height="1em" width="1em">
  <path d="M11.2929 12L14.1464 14.8536C14.3417 15.0488 14.6583 15.0488 14.8536 14.8536C15.0488 14.6583 15.0488 14.3417 14.8536 14.1464L1.85355 1.14645C1.65829 0.951184 1.34171 0.951184 1.14645 1.14645C0.951184 1.34171 0.951184 1.65829 1.14645 1.85355L3.91114 4.61825C3.64722 5.19078 3.50001 5.8282 3.50001 6.5V8.9014L2.5357 11.3145C2.47415 11.4685 2.49299 11.643 2.58601 11.7804C2.67904 11.9177 2.83412 12 3 12H11.2929ZM13.4643 11.3145C13.4701 11.329 13.4752 11.3436 13.4796 11.3585L5.14367 3.02257C5.92065 2.38362 6.91553 2 8.00001 2C10.4853 2 12.5 4.01472 12.5 6.5V8.9014L13.4643 11.3145ZM7.99998 14.5C7.06806 14.5 6.28501 13.8626 6.06299 13H9.93697C9.71495 13.8626 8.9319 14.5 7.99998 14.5Z" fill="#212121"/>
</svg>

<svg viewBox="0 0 16 16" fill="none" xmlns="http://www.w3.org/2000/svg" height="1em" width="1em">
  <path d="m11.293 12 2.853 2.854a.5.5 0 0 0 .708-.708l-13-13a.5.5 0 1 0-.708.708l2.765 2.764A4.483 4.483 0 0 0 3.5 6.5v2.401l-.964 2.414A.5.5 0 0 0 3 12h8.293Zm2.171-.685.016.043-8.336-8.335A4.5 4.5 0 0 1 12.5 6.5v2.401l.964 2.414ZM8 14.5A2 2 0 0 1 6.063 13h3.874A2 2 0 0 1 8 14.5Z" fill="#212121"/>
</svg>
